X:1
T:Title
%%score { 1 | ( 2 3 ) }
L:1/8
M:4/4
K:Eb
V:1 treble nm="Grand Piano"
V:2 bass 
V:3 bass 
V:1
 z4[Q:1/4=100] G3 G | A2 G2 [EG]2 [DF]2 | E4 [EB]3 [B,EB] | [Ec]2 [EB]2 [DB]2 [DF]2 |[M:2/4] G4 | %5
 G3 G |[M:4/4] F2 G2 A2 [Fc]2 | [_Gc]2 B2 d3 d | c2 B2 B2 =A2 |[M:2/4] B4 | e3 [Ge] | %11
[M:4/4] d2 d2 c2 d2 | e2 B2 c3 c | B2 [Ee]2 [Ae]2 [Ad]2 |[M:2/4] [Ge]4 |] %15
V:2
 z4 [E,B,E]3 [E,B,E] | [E,CE]2 [E,B,E]2 [B,,B,]2 [=B,,A,]2 | [C,G,]4 [G,,G,]3 G,, | %3
 [A,,A,]2 [B,,G,]2 [B,,F,]2 [B,,B,]2 |[M:2/4] [E,B,E]4 | [E,B,E]3 [E,B,E] | %6
[M:4/4] [E,A,E]2 [E,B,E]2 [E,CE]2 [E,A,]2 | E,2- [E,B,G]2 [F,B,F]3 [F,B,F] | %8
 [F,EF]2 [F,DF]2 [F,CE]2 [F,CE]2 |[M:2/4] [B,D]4 | [E,G,E]3 [E,B,] | %11
[M:4/4][K:treble] [G,B,G]2 [G,B,G]2 [A,CE]2 [A,B,F]2 | [G,B,E]4[K:bass] [A,E]3 [A,E] | %13
 [G,B,E]2 [C,C]2 [F,C]2 [B,,F,B,]2 |[M:2/4] [E,B,]4 |] %15
V:3
 x8 | x8 | x8 | x8 |[M:2/4] x4 | x4 |[M:4/4] x8 | =A,2 z2 z4 | x8 |[M:2/4] x4 | x4 | %11
[M:4/4][K:treble] x8 | x4[K:bass] x4 | x8 |[M:2/4] x4 |] %15

